X:1
T:Title
%%score { ( 1 3 ) | ( 2 4 ) }
L:1/8
Q:1/4=100
M:4/4
K:Bb
V:1 treble nm="Grand Piano"
V:3 treble 
V:2 bass 
V:4 bass 
V:1
 [DF] [DF]2 [EG] [DF]2 [DFB]2 | [Fd]4 [DB]2 [FB]2 | [GB]3 [GB] [FA]2 [EG]2 | [DF]6 z2 | %4
w: W.~H.~Doane * * * *||||
 [DF] [DF]2 [EG] [DF]2 [FB]2 | c4 d2 c2 | [Fc]3 [DFB] [CFA]2 [B,=EG]2 | [A,F]6 z2 | %8
w: ||||
 [CFA] [CFA]2 [DGB] c2 c2 | d4 B2 d2 | d3 d e2 d2 | [Ec]6 z2 | c2 cc d2 [Fc]2 | f4 z4 | %14
w: ||||||
 B3 B d2 c2 | [DB]6 z2 |] %16
w: ||
V:2
 [B,,B,] [B,,B,]2 [B,,B,] [B,,B,]2 B,,2 | [B,,B,]4 [B,,B,]2 [D,B,]2 | %2
 [E,E]3 [E,E] [E,B,]2 [E,B,]2 | [B,,B,]6 z2 | [B,,B,] [B,,B,]2 [B,,B,] [B,,B,]2 [D,B,]2 | %5
 [F,A,F]4 [F,B,F]2 [F,A,F]2 | [C,A,]3 C, C,2 C,2 | F,6 z2 | F, F,2 F, [F,EF]2 [F,A,F]2 | %9
 [B,F]4 [B,DF]2 [B,F]2 | [G,=B,G]3 [G,B,G] [G,CG]2 [G,B,F]2 | [C,G,]6 z2 | %12
 [F,A,F]2 [F,A,F][F,A,F] [F,B,F]2 [E,A,]2 | B,2 z2 [E,C]2 [E,E]2 | %14
 [F,DF]3 [F,DF] [F,B,F]2 [F,A,E]2 | [B,,B,]6 z2 |] %16
V:3
 x8 | x8 | x8 | x8 | x8 | x8 | x8 | x8 | x8 | x8 | x8 | x8 | x8 | F2 [=B,_A]2 [Ge]2 [Gc]2 | x8 | %15
 x8 |] %16
V:4
 x8 | x8 | x8 | x8 | x8 | x8 | x8 | x8 | x8 | x8 | x8 | x8 | x8 | D,4 z4 | x8 | x8 |] %16

